X:145
T:Beauties of the Ballroom
M:6/8
L:1/8
Q:126
C:Traditional
S:Arranged by Buddy MacMaster
R:jig
K:G
a|:efe ed^c|B^cA DGE|AB=c dBG|
1A3a3:||A3 e a2||:a2 d' c'ba|gfa g2 d|
cBc gfe|dgd B2 G|cBc d^cd|ed=c BAG|
Bge dBG|1A3 e a2:|| A6 ||:A,B,G, A,2 B,|
E3E2 D|B,A,G, G,2B,|D3D2 B,|A,B,G, A,2 B,|
A, A2A3|(4GFED (4EFGB,|1A,6:||2A,3 A,2a||
